icons/package-24.svg

<svg width="24" height="24" viewBox="0 0 24 24" xmlns="http://www.w3.org/2000/svg">
  <path fill-rule="evenodd" clip-rule="evenodd" d="M12.876 0.639068C12.3346 0.326529 11.6676 0.326528 11.1262 0.639068L2.87619 5.40157C2.33469 5.71416 2.0011 6.29191 2.0011 6.91716V16.4419C2.0011 17.0672 2.33468 17.6449 2.87619 17.9575L11.1262 22.72C11.6676 23.0326 12.3346 23.0326 12.876 22.72L21.126 17.9575C21.6675 17.6449 22.0011 17.0672 22.0011 16.4419V6.91716C22.0011 6.29191 21.6675 5.71416 21.126 5.40157L12.876 0.639068ZM11.8761 1.93815C11.9535 1.8935 12.0487 1.8935 12.1261 1.93815L19.7512 6.33994L12.0011 10.8139L4.25099 6.33993L11.8761 1.93815ZM3.5011 7.63903V16.4419C3.5011 16.5312 3.54875 16.6138 3.62611 16.6584L11.2511 21.0602V12.1129L3.5011 7.63903ZM12.7511 21.0601L20.3761 16.6584C20.4534 16.6138 20.5011 16.5312 20.5011 16.4419V7.63906L12.7511 12.1129V21.0601Z"/>
</svg>

<svg xmlns="http://www.w3.org/2000/svg" width="24" height="24" viewBox="0 0 24 24"><path fill-rule="evenodd" d="M12.876.64a1.75 1.75 0 00-1.75 0l-8.25 4.762a1.75 1.75 0 00-.875 1.515v9.525c0 .625.334 1.203.875 1.515l8.25 4.763a1.75 1.75 0 001.75 0l8.25-4.762a1.75 1.75 0 00.875-1.516V6.917a1.75 1.75 0 00-.875-1.515L12.876.639zm-1 1.298a.25.25 0 01.25 0l7.625 4.402-7.75 4.474-7.75-4.474 7.625-4.402zM3.501 7.64v8.803c0 .09.048.172.125.216l7.625 4.402v-8.947L3.501 7.64zm9.25 13.421l7.625-4.402a.25.25 0 00.125-.216V7.639l-7.75 4.474v8.947z"/></svg>
